X:79
%%titlespace -15
%%musicspace -15
T: The Ballydesmond #2
M: 2/4
L: 1/8
K: Ador
"Am"c2 B2|A2 GA|"G"Bd ed|g2 ed|
"Am"ea ge|"G"dB G>B|"Am"ce "G"dB|"Am"A4:|
|:"Am"ea ag|"G"dg gd|"Am"ea ab|"G"g2 ed|
"Am"ea ge|"G"dB G>B|"Am"ce "G"dB | "Am"A4 :|

